!!!!SEGMENT: pl-sa--253-a-vii-13_g-b-b--domine-non-sum-dignus.krn
!!!cenid: 17xx:603
!!!COM: G. B. B.
!!!COM-rismID: pe41010087
!!!CDT:
!!!CNT:
!!!OTL: Domine non sum dignus
!!!PDT:
!!!AGN: Sacred
!!!SMS-siglum: PL-SA
!!!SMS-shelfmark: 253/A VII 13
!!!SMS-shelfwork: W
!!!SMS-variant:
!!!SMS-altvar:
!!!NIFC-rismSourceID: 1001029962
!!!NIFC-islandoraID:
!!!URL-pdf-islandora:
!!!URL-scan: https://bc.bdsandomierz.pl/dlibra/publication/1778/edition/1746/content @EN{Scan in the Sandomierz Diocese Digital Library} @PL{Skany w portalu Cyfrowa Biblioteka Diecezjalna w Sandomierzu}
!!!ONB-nifc:
!!!AIN: 1 alto 1 bass 2 violn
!!!key:
**kern	**fba	**kern	**kern	**kern	**text
*part4	*	*part3	*part2	*part1	*part1
*	*	*group1	*group1	*	*
*staff4	*	*staff3	*staff2	*staff1	*staff1
*Ibass	*	*Ivioln	*Ivioln	*Ialto	*
*I"Basso	*	*I"Violino Secundo	*I"Violino Primo	*I"Alto Solo	*
*I'bc	*	*I'vl 2	*I'vl 1	*I'A solo	*
*clefF4	*	*clefG2	*clefG2	*clefC3	*
*k[]	*	*k[]	*k[]	*k[]	*
*d:	*	*d:	*d:	*d:	*
*M4/4	*	*M4/4	*M4/4	*M4/4	*
*met(C.)	*	*met(C.)	*met(C.)	*met(C.)	*
=1	=1	=1	=1	=1	=1
*	*	*	*	*2\right	*
!LO:TX:a:t=P:problem=brak nazwy głosu	!	!	!	!	!
8D\L	.	0r	0r	2d\	Do-
8E\	.	.	.	.	.
8F\	.	.	.	.	.
8D\J	.	.	.	.	.
8C#X/L	.	.	.	4a\	.
8BB/	.	.	.	.	.
8C#/	.	.	.	16a\LL	.
.	.	.	.	16g\	.
8AA/J	.	.	.	16f\	.
.	.	.	.	16e\JJ	.
=2	=2	=2	=2	=2	=2
8d\L	.	.	.	8.f\	.
8c\	.	.	.	.	.
!	!	!	!	!LO:N:vis=16	!
.	.	.	.	(32e\LLL	-mi-
!	!	!	!	!LO:N:vis=16	!
.	.	.	.	32d\JJJ)	.
8B-X\	.	.	.	4d\	-ne
8A\J	.	.	.	.	.
8G\L	6	.	.	8.b-X\L	Do-
8A\	.	.	.	.	.
.	.	.	.	16a\Jk	-mi-
8B-X\	6	.	.	(8g\L	-ne
8G\J	.	.	.	8a\J)	.
=3	=3	=3-	=3-	=3	=3
!	!	!	!	!LO:TX:a:t=P:problem=♭ above	!
*	*	*	*	*	*ij
8G\L	.	1r	1r	8.b-X\	Do-
8A\	.	.	.	.	.
.	.	.	.	16c#X/	-mi-
!LO:TX:a:t=P:problem=♭ above	!	!	!	!	!
8B-X\	.	.	.	4d\	-ne
*	*	*	*	*	*Xij
8F\J	.	.	.	.	.
!LO:TX:a:t=P:problem=mixed beam	!	!	!	!	!
8G\L	6 5	.	.	(16e\LL	non
.	.	.	.	16f\JJ)	.
8E\	.	.	.	(16g\LL	ſum
.	.	.	.	16a\JJ)	.
8A\	4	.	.	8.f\L	di-
8AA/J	3	.	.	.	.
.	.	.	.	16e\Jk	.
=4	=4	=4-	=4-	=4	=4
*	*	*	*2\right	*	*
8d\L	.	4a/	2dd\	4d\	-gnuſ
8c#X\	.	.	.	.	.
8d\	.	4dd\	.	4r	.
8B\J	.	.	.	.	.
8A\L	.	4.cc#X\	4aa\	2r	.
8Bn\	.	.	.	.	.
8c#X\	6	.	16aa\LL	.	.
.	.	.	16gg\	.	.
8A\J	.	16dd\LL	16ff\	.	.
.	.	16ee\JJ	16ee\JJ	.	.
=5	=5	=5	=5	=5-	=5
8d\L	.	4.dd\	8ff\L	0r	.
8c\	.	.	16ee\L	.	.
.	.	.	16dd\JJ	.	.
!LO:SIC:s=8B:v-	!	!	!	!	!
8B\	.	.	4dd\	.	.
8A\J	.	16ee\LL	.	.	.
.	.	16ff\JJ	.	.	.
8G\L	.	8gg\L	8bb-X\L	.	.
8A\	.	8cc#X\J	8aa\	.	.
8B-X\	6	8dd\L	8gg\	.	.
8F\J	6	16ddd\L	8aa\J	.	.
.	.	16ccc\JJ	.	.	.
=6	=6	=6	=6	=6	=6
8G\L	.	8bb-X\L	8bb-X\L	.	.
8A\	.	8aa\	8cc#X\	.	.
8B-X\	.	8gg\	8dd\	.	.
8F\J	.	8aa\J	8dd\J	.	.
!LO:TX:a:t=P:problem=mixed beam	!	!	!	!	!
8G\L	.	16bb-X\LL	8dd\L	.	.
.	.	16aa\	.	.	.
8E\	.	16gg\	16ee\L	.	.
.	.	16ff\JJ	16dd\JJ	.	.
8A\	#	8.ee\L	8.cc#X\L	.	.
8AA/J	.	.	.	.	.
.	.	16dd\Jk	16dd\Jk	.	.
!LO:LB:g=original	!	!	!	!	!
=7	=7	=7	=7	=7	=7
8D\L	.	4dd\	4dd\	8a\L	Do-
8E\	.	.	.	8g\J	.
*	*	*	*	*custos:a	*
!	!	!	!	!LO:LB:g=original	!
8F\	.	4r	4r	8a\L	.
8G\J	.	.	.	16g\L	.
.	.	.	.	16f\JJ	.
8A\L	.	2r	2r	8.e\	.
8Bn\	.	.	.	.	.
.	.	.	.	16e\	-mi-
8c#X\	.	.	.	4e\	-ne
8A\J	.	.	.	.	.
=8	=8	=8-	=8-	=8	=8
8d\L	.	00r	00r	4f\	Do-
8c\	.	.	.	.	.
8B-X\	6	.	.	8g\	-mi-
8A\J	6	.	.	8a\	-ne
!LO:TX:a:t=P:problem=mixed beam	!	!	!	!LO:SIC:s=4b-:v	!
8G\L	.	.	.	4b\	Do-
8B-X\	.	.	.	.	.
8c\	4	.	.	8.a\	-mi-
8C/J	3	.	.	.	.
.	.	.	.	16g\	-ne
=9	=9	=9	=9	=9	=9
8F\L	.	.	.	8a\	non
8E\	.	.	.	8g\	ſu(m)
8D\	.	.	.	8f\	di-
8C#X\J	.	.	.	8e\	-gnuſ
*	*	*	*	*	*ij
8d\L	.	.	.	8f\	non
8c\	.	.	.	8e\	ſu(m)
!LO:TX:a:t=P:problem=♭ above	!	!	!	!	!
8B-\	.	.	.	8d\	di-
8A\J	.	.	.	8c#X\	-gnuſ
*	*	*	*	*	*Xij
=10	=10	=10	=10	=10	=10
8B-X\L	.	.	.	2d\	ut
8A\	.	.	.	.	.
8B-\	.	.	.	.	.
8F\J	.	.	.	.	.
!LO:TX:a:t=P:problem=mixed beam	!	!	!	!	!
8G\L	.	.	.	8e\	in-
8E\	.	.	.	8g\	-treſ
8A\	#	.	.	8.f\	me-
8AA/J	.	.	.	.	.
.	.	.	.	16e\	-um
=11	=11	=11	=11	=11	=11
!LO:TX:a:t=P:problem=mixed beam	!	!	!	!	!
8D/L	.	.	.	4f\	cor
8d\	.	.	.	.	.
8c\	.	.	.	(8e\L	ſed
8B\J	6	.	.	8d\J)	.
*	*	*	*	*custos:a	*
!	!	!	!	!LO:LB:g=original	!
8A\L	.	.	.	2a\	tu-
8Bn\	.	.	.	.	.
8c#X\	.	.	.	.	.
8A\J	.	.	.	.	.
=12	=12	=12-	=12-	=12	=12
!LO:TX:a:t=P:problem=mixed beam	!	!	!	!	!
8D\L	.	8ff\L	8aa\L	4a\	-uſ
8E\	6\	8ee\J	8gg\J	.	.
8D\	.	8ff\L	8aa\L	4r	.
8AA/J	.	16ee\L	16gg\L	.	.
.	.	16dd\JJ	16ff\JJ	.	.
8A\L	.	8.cc#X\L	8.ee\L	4r	.
8Bn\	.	.	.	.	.
.	.	16cc#\Jk	16ee\Jk	.	.
8c#X\	.	4cc#\	4ee\	8a\	tam
8A\J	.	.	.	8e\	be-
=13	=13	=13-	=13-	=13	=13
8d\L	.	00r	00r	16f\LL	-ni-
.	.	.	.	16g\	.
8c\	.	.	.	16e\	.
.	.	.	.	16f\JJ	.
8B\	.	.	.	16d\LL	.
.	.	.	.	16f\	.
8A\J	.	.	.	16g\	.
.	.	.	.	16a\JJ	.
8G\L	.	.	.	16b\LL	.
.	.	.	.	16cc\	.
8F\	.	.	.	16a\	.
.	.	.	.	16b\JJ	.
8E\	.	.	.	16g\LL	.
.	.	.	.	16b\	.
8C\J	.	.	.	16cc\	.
.	.	.	.	16b\JJ	.
!LO:LB:g=original	!	!	!	!	!
=14	=14	=14	=14	=14	=14
8F\L	.	.	.	8a\	-gnuſ
8G\	.	.	.	8f\	o-
8A\	.	.	.	8f\	-mni
8F\J	.	.	.	8e\	.
8B-X\L	.	.	.	8d\	Ma-
8A\	.	.	.	8c#X/	-ge-
8B-\	.	.	.	8d\	-ſta-
8G\J	6	.	.	8e\	-te
=15	=15	=15	=15	=15	=15
8A\L	.	.	.	8.c#X/	di-
8G\	.	.	.	.	.
.	.	.	.	16c#/	-gnuſ
*	*	*	*	*custos:d	*
!	!	!	!	!LO:LB:g=original	!
8F\	6	.	.	8.d\	mi-
8D\J	.	.	.	.	.
.	.	.	.	16d\	-hi
8A\L	.	.	.	8.e\	ſuf-
8Bn\	.	.	.	.	.
.	.	.	.	16e\	-fi-
8c#X\	6	.	.	4e\	-cit
8A\J	.	.	.	.	.
=16	=16	=16	=16	=16	=16
8d\L	.	.	.	(8f\L	a-
8c\	.	.	.	8e\J)	.
8B-X\	6	.	.	(8g\L	-mor
8A\J	6	.	.	8f\J)	.
8G\L	.	.	.	8a\	mi-
8A\	.	.	.	8c#X/	-hi
8B-X\	.	.	.	8d\	ſuf-
8F\J	.	.	.	16d\	-fi-
.	.	.	.	16d\	-cit
=17	=17	=17-	=17-	=17	=17
!LO:TX:a:t=P:problem=mixed beam	!	!	!	!	!
8G\L	.	2r	2r	(4.d\	a-
8E\	6 5	.	.	.	.
8A\	#	.	.	.	.
8AA/J	.	.	.	8c#X\)	.
8D\L	6\	8ff\L	8aa\L	4d\	-mor
8E\	.	8ee\J	8gg\J	.	.
!	!	!LO:LB:g=original	!	!	!
8D\	.	8ff\L	8aa\L	4r	.
8G\J	.	16ee\L	16gg\L	.	.
.	.	16dd\JJ	16ff\JJ	.	.
=18	=18	=18-	=18	=18-	=18
8A\L	.	8.cc#X\L	8.ee\L	0r	.
8Bn\	.	.	.	.	.
.	.	16cc#\K	16ee\K	.	.
8c#X\	.	8cc#\	8ee\	.	.
8A\J	.	8cc#\J	8ee\J	.	.
!	!	!	!LO:LB:g=original	!	!
8D\L	.	4.dd\	8ff\L	.	.
8E\	.	.	8gg\J	.	.
8F\	6	.	8aa\L	.	.
8G\J	.	16ee\LL	16gg\L	.	.
.	.	16dd\JJ	16ff\JJ	.	.
=19	=19	=19	=19-	=19	=19
8AA/L	.	8.cc\L	8.ee\L	.	.
!LO:TX:b:t=P:problem=♮ below	!	!	!	!	!
8BBn/	.	.	.	.	.
.	.	16bn\Jk	16dd\Jk	.	.
8C/	.	16a\LL	16cc\LL	.	.
.	.	16cc\	16ee\	.	.
8D/J	.	16b\	16dd\	.	.
.	.	16a\JJ	16cc\JJ	.	.
8E/L	.	8g#X/L	8bn\L	.	.
8C/	.	8a/J	8cc\J	.	.
8D/	.	8.a/L	8.b\L	.	.
8E/J	.	.	.	.	.
!	!	!LO:TX:b:t=P:problem=# below	!	!	!
.	.	16g#X/Jk	16b\Jk	.	.
=20	=20	=20	=20	=20-	=20
8AA/L	.	4a/	4a/	2A/	Do-
8BBn/	.	.	.	.	.
8C#X/	.	4r	4r	.	.
8AA/J	.	.	.	.	.
8G#X\L	.	2ra	2r	4e\	.
8F#X\	.	.	.	.	.
8G#X\	6	.	.	16e\LL	.
.	.	.	.	16d\	.
8E\J	.	.	.	16c\	.
!	!	!	!	!LO:TX:a:t=P:problem=# above	!
!	!	!	!	!LO:SIC:s=16B:v	!
.	.	.	.	16B#X\JJ	.
!LO:LB:g=original	!	!	!	!	!
=21	=21	=21-	=21-	=21	=21
8A\L	.	0r	0r	8.c/	.
8G\	.	.	.	.	.
!	!	!	!	!LO:SIC:s=16B:v	!
.	.	.	.	16B#X/	-mi-
8F\	.	.	.	4A/	-ne
8E\J	.	.	.	.	.
*	*	*	*	*custos:f	*
!	!	!	!	!LO:LB:g=original	!
!	!	!	!	!LO:TX:a:t=P:problem=wykreślony takt	!
8D\L	.	.	.	(8f\L	Do-
8E\	.	.	.	8e\J)	.
8F\	6	.	.	8d\	-mi-
8C\J	.	.	.	8e\	-ne
=22	=22	=22	=22	=22-	=22
!LO:TX:a:t=P:problem=mixed beam	!	!	!	!LO:TX:a:t=P:problem=mixed beam	!
8D\L	.	.	.	(>8f\L	Do-
8E\	.	.	.	8G#X/J)	.
8F\	.	.	.	8A/	-mi-
8C/J	6	.	.	8A/	-ne
8D/L	.	.	.	(16B#X\LL	non
.	.	.	.	16c\JJ)	.
8BBn/	.	.	.	(16d\LL	ſum
.	.	.	.	16e\JJ)	.
8E/	#	.	.	(8.c/L	di-
8EE/J	.	.	.	.	.
!	!	!	!	!LO:SIC:s=16B:v	!
.	.	.	.	16B#X/Jk)	.
=23	=23	=23-	=23-	=23	=23
8A\L	-	2a/	4ee\	4A/	-gnuſ
8G#X\	6	.	.	.	.
8A\	.	.	4aa\	4r	.
8F\J	.	.	.	.	.
8E\L	.	[4ee\	4.gg#X\	2rA	.
8F#X\	.	.	.	.	.
8G#X\	.	16ee\LL]	.	.	.
.	.	16dd\	.	.	.
8E\J	.	16cc\	16aa\LL	.	.
.	.	16b\JJ	16bbn\JJ	.	.
=24	=24	=24	=24-	=24-	=24
8A\L	.	8cc\L	4.aa\	0r	.
8G\	.	16b\L	.	.	.
.	.	16a\JJ	.	.	.
8F\	.	4a/	.	.	.
8E\J	.	.	16bbn\LL	.	.
.	.	.	16ccc\JJ	.	.
8D\L	.	8ff\L	8ddd\L	.	.
8E\	.	8ee\J	8gg#X\J	.	.
8F\	6	8dd\L	8aa\L	.	.
8C\J	6	8ee\J	16ccc\L	.	.
.	.	.	16aa\JJ	.	.
=25	=25	=25	=25	=25	=25
!	!	!LO:TX:a:t=P:problem=mixed beam	!	!	!
8D\L	.	8ff\L	8ff\L	.	.
8E\	.	8g#X/	8ee\	.	.
8F\	6	8a/	8dd\	.	.
8C\J	6	8a/J	8ee\J	.	.
!LO:TX:a:t=P:problem=mixed beam	!	!	!	!	!
8D/L	.	8a/L	(16ff\LL	.	.
.	.	.	16ee\)	.	.
8BBn/	.	16bn/L	(16dd\	.	.
.	.	16a/JJ	16cc\JJ)	.	.
!	!	!LO:LB:g=original	!	!	!
8E\	4	8.g#X/L	8.bn/L	.	.
8EE/J	3	.	.	.	.
.	.	16a/Jk	16a/Jk	.	.
=26	=26	=26	=26	=26-	=26
8AA/L	.	4a/	4a/	(8e\L	Do-
8BB/	.	.	.	8d\J)	.
8C/	.	4r	4r	8e\	.
8D/J	.	.	.	16d\	-mi-
.	.	.	.	16c\	-ne
!	!	!	!	!LO:SIC:s=8.B:v	!
8E\L	.	2r	2r	8.B#X/	Do-
8G#X\	.	.	.	.	.
!	!	!	!	!LO:SIC:s=16B:v	!
.	.	.	.	16B#/	-mi-
!	!	!	!	!LO:SIC:s=4B:v	!
8F#X\	.	.	.	4B#/	-ne
8G#X\J	.	.	.	.	.
!	!	!	!LO:LB:g=original	!	!
=27	=27	=27	=27	=27-	=27
8A\L	.	8cc\L	8ee\L	1r	.
8Bn\	6\	8b\J	8dd\J	.	.
8A\	.	8cc\L	8ee\L	.	.
8D\J	.	16b\L	16dd\L	.	.
.	.	16a\JJ	16cc\JJ	.	.
8E\L	.	8.g#X/L	8.bn\L	.	.
8F#X\	.	.	.	.	.
.	.	16g#/Jk	16b\Jk	.	.
8G#X\	6	4g#/	4b\	.	.
8E\J	.	.	.	.	.
*	*	*	*	*custos:e	*
!LO:LB:g=original	!	!	!	!LO:LB:g=original	!
=28	=28	=28-	=28-	=28	=28
8AA/L	.	00r	00r	(8e\L	Do-
8BB/	.	.	.	8d\J)	.
8C/	.	.	.	8e\	.
8D/J	.	.	.	16d\	-mi-
.	.	.	.	16c/	-ne
8E\L	#	.	.	8.B#X/	Do-
8E\	.	.	.	.	.
.	.	.	.	16B#/	-mi-
8G#X\	.	.	.	4B#/	-ne
8E\J	.	.	.	.	.
=29	=29	=29	=29	=29	=29
8A\L	.	.	.	4c/	Do-
8G\	.	.	.	.	.
8F\	6	.	.	8d\	-mi-
8E\J	.	.	.	8e\	-ne
!LO:TX:a:t=P:problem=mixed beam	!	!	!	!	!
8D\L	.	.	.	4f\	Do-
8F\	.	.	.	.	.
8G\	7	.	.	8e\	-mi-
8GG/J	.	.	.	8d\	-ne
=30	=30	=30	=30	=30	=30
8c\L	.	.	.	8e\	non
8Bn\	.	.	.	8d\	ſum
8A\	.	.	.	8c/	di-
!	!	!	!	!LO:SIC:s=8B:v	!
8G#X\J	.	.	.	8B#X/	-gnuſ
8A\L	.	.	.	8c/	non
!	!	!	!	!LO:SIC:s=8B:v	!
8G#\	.	.	.	8B#X/	ſum
8F\	.	.	.	8A/	di-
8E\J	#	.	.	8G#X/	-gnuſ
=31	=31	=31	=31	=31	=31
8F\L	.	.	.	2A/	ut
8E\	.	.	.	.	.
8F\	6	.	.	.	.
8C\J	.	.	.	.	.
!	!	!	!	!LO:TX:b:t=P:problem=♯ below	!
!LO:TX:a:t=P:problem=mixed beam	!	!	!	!LO:SIC:s=8B:v	!
8D/L	.	.	.	8B#X/	in-
8BBn/	.	.	.	8d\	-treſ
*	*	*	*	*custos:c	*
!	!	!	!	!LO:LB:g=original	!
8E\	#	.	.	8.c/	me-
8EE/J	.	.	.	.	.
!	!	!	!	!LO:SIC:s=16B:v	!
.	.	.	.	16B#X/	-um
=32	=32	=32-	=32-	=32	=32
8AA/L	.	1r	1r	4c/	cor
8AA/	.	.	.	.	.
!	!	!	!	!LO:SIC:s=8.B:v	!
8EE/	.	.	.	8.B#X/L	ſed
!LO:SIC:s=8FF#:v	!	!	!	!	!
8FF/J	.	.	.	.	.
.	.	.	.	16A/Jk	.
8E\L	#	.	.	2e\	tu-
8F#X\	.	.	.	.	.
8G#X\	.	.	.	.	.
8E\J	.	.	.	.	.
=33	=33	=33-	=33-	=33	=33
8A\L	.	8ccc\L	8eee\L	4e\	-uſ
8Bn\	.	8bb\J	8ddd\J	.	.
8A\	.	8ccc\L	8eee\L	4r	.
8D\J	.	16bbn\L	16ddd\L	.	.
.	.	16aa\JJ	16ccc\JJ	.	.
8E\L	#	8.gg#X\L	8.bbn\L	4r	.
8F#X\	.	.	.	.	.
.	.	16gg#\Jk	16bb\Jk	.	.
8G#X\	.	4gg#\	4bb\	8e\	tam
!	!	!	!	!LO:SIC:s=8B:v	!
8E\J	.	.	.	8B#X/	be-
=34	=34	=34-	=34-	=34	=34
!LO:TX:a:t=P:problem=♭ above	!	!	!	!	!
8A-\L	.	00r	00r	16c/LL	-ni-
.	.	.	.	16d/	.
!	!	!	!	!LO:TX:b:t=P:problem=♯ below	!
!	!	!	!	!LO:SIC:s=16B:v	!
8G\	.	.	.	16B#X/	.
.	.	.	.	16c/JJ	.
8F\	6	.	.	16A/LL	.
.	.	.	.	16c/	.
8E\J	.	.	.	16d/	.
.	.	.	.	16e/JJ	.
8d\L	.	.	.	16f\LL	.
.	.	.	.	16g\	.
8c\	.	.	.	16e\	.
.	.	.	.	16f\JJ	.
8Bn\	.	.	.	16d\LL	.
.	.	.	.	16f\	.
8G\J	.	.	.	16g\	.
.	.	.	.	16f\JJ	.
!LO:LB:g=original	!	!	!	!	!
=35	=35	=35	=35	=35	=35
8C\L	.	.	.	8e\	.
8D\	.	.	.	8c/	-gnuſ
8E\	.	.	.	8c/	om-
!	!	!	!	!LO:SIC:s=8B:v	!
8C\J	.	.	.	8B#X/	-ni
!	!	!	!	!LO:TX:a:t=P:korekta:problem	!
8E\L	.	.	.	8c 8A/	Ma-
8F\	.	.	.	8G#X/	-ge-
*	*	*	*	*custos:A	*
!	!	!	!	!LO:LB:g=original	!
8E\	.	.	.	8A/	-ſta-
!	!	!	!	!LO:SIC:s=8B:v	!
8D\J	6	.	.	8B#X/	-te
=36	=36	=36	=36	=36	=36
8E\L	.	.	.	8.G#X/	Di-
8D\	.	.	.	.	.
.	.	.	.	16G#/	-gnuſ
8C\	.	.	.	8A/	mi-
8AA\J	.	.	.	8A/	-hi
!LO:TX:a:t=P:problem=mixed beam	!	!	!	!LO:SIC:s=8.B:v	!
8E\L	.	.	.	8.B#X/	ſuf-
8EE/	.	.	.	.	.
!	!	!	!	!LO:SIC:s=16B:v	!
.	.	.	.	16B#/	-fi-
!	!	!	!	!LO:SIC:s=4B:v	!
8GG#X/	.	.	.	4B#/	-cit
8EE/J	.	.	.	.	.
=37	=37	=37	=37	=37	=37
8A\L	.	.	.	(8c/L	a-
!	!	!	!	!LO:SIC:s=8B:v	!
8G\	.	.	.	8B#X/J)	.
8F\	.	.	.	(8d\L	-mor
8E\J	.	.	.	8c\J)	.
8D\L	.	.	.	8f\	mi-
8E\	.	.	.	8G#X/	-hi
8F\	6	.	.	8A/	ſuf-
8C\J	.	.	.	16A/	-fi-
.	.	.	.	16A/	-cit
=38	=38	=38-	=38-	=38	=38
!LO:TX:a:t=P:problem=mixed beam	!	!	!	!	!
8DD/L	.	4r	2r	(4.A/	a-
8D\	.	.	.	.	.
8E\	.	8ee\L	.	.	.
8EE/J	.	8bn\J	.	8G#X/)	.
8A\L	.	8cc#X\L	4r	4A/	-mor
8Bn\	.	8dd\	.	.	.
!	!	!	!	!LO:TX:b:t=Verte\nCito	!
8c#X\	.	8ee\	8aa\L	4r	.
8A\J	.	8cc#\J	8ee\J	.	.
!	!	!	!	!LO:PB:g=original	!
=39	=39	=39	=39	=39	=39
!LO:TX:a:t=P:problem=mixed beam	!	!	!	!	!
8d\L	.	8dd\L	4ff\	2r	.
8D/	.	8ff\	.	.	.
8A\	.	8ee\	8cc#X\L	.	.
8Bn\J	.	8dd\J	8dd\J	.	.
8A\L	.	8.cc#X\L	8.ee\L	4r	.
8Bn\	.	.	.	.	.
.	.	16b\Jk	16ee\Jk	.	.
8c#X\	.	4a/	8ee\L	8a\	Do-
8A\J	.	.	8cc#X\J	8e\	-mi-
=40	=40	=40	=40	=40	=40
!LO:TX:a:t=P:problem=mixed beam	!	!	!	!	!
8d\L	.	4.a/	8dd\L	4f\	-ne
8D/	.	.	8ff\	.	.
8A\	.	.	8.ee\	8c#X/	non
!LO:TX:a:t=P:problem=♭ above	!	!	!	!	!
8B-X\J	.	8dd\	.	8d\	ſum
.	.	.	16dd\Jk	.	.
8A\L	.	4a/	4cc#X\	4e\	di-
8G\	.	.	.	.	.
8F\	6	4r	4r	8e\	-gnuſ
8E\J	6	.	.	8e\	ut
!	!	!LO:LB:g=original	!	!	!
=41	=41	=41	=41-	=41	=41
8D/L	.	1r	1r	(8f\L	in-
8C/	.	.	.	8e\J)	.
8BB/	6	.	.	(8g\L	-treſ
8AA/J	6	.	.	8f\J)	.
!LO:LB:g=original	!	!	!	!	!
8G\L	.	.	.	8b\	Me-
8A\	.	.	.	8c#X/	-um
!LO:TX:a:t=P:problem=♭ above	!	!	!	!	!
8B-X\	.	.	.	4d\	Cor
8F\J	.	.	.	.	.
=42	=42	=42-	=42-	=42	=42
!LO:TX:a:t=P:problem=mixed beam	!	!	!	!	!
8G\L	.	2r	2r	4d\	Me-
8E\	6 5	.	.	.	.
8A\	4	.	.	(8d\L	-um
8AA/J	3	.	.	8c#X\J)	.
8D/L	.	4a/	2dd\	4d\	Cor
8C#X/	.	.	.	.	.
8D/	.	4dd\	.	4r	.
8AA/J	.	.	.	.	.
!	!	!	!LO:LB:g=original	!	!
=43	=43	=43	=43	=43-	=43
8A\L	.	4.cc#X\	4aa\	0r	.
8Bn\	.	.	.	.	.
8c#X\	.	.	16aa\LL	.	.
.	.	.	16gg\	.	.
8A\J	.	16dd\LL	16ff\	.	.
.	.	16ee\JJ	16ee\JJ	.	.
8d\L	.	4.dd\	8ff\L	.	.
!LO:SIC:s=8cn:v	!	!	!	!	!
8c#\	.	.	16ee\L	.	.
.	.	.	16dd\JJ	.	.
8B-X\	.	.	4dd\	.	.
8A\J	.	16ee\LL	.	.	.
.	.	16ff\JJ	.	.	.
=44	=44	=44	=44	=44	=44
8G\L	.	8gg\L	8bb-X\L	.	.
8A\	.	8cc#X\J	8aa\	.	.
8B-X\	.	8dd\L	8gg\	.	.
8F\J	.	16ddd\L	8aa\J	.	.
.	.	16ccc\JJ	.	.	.
8G\L	.	8bb-X\L	8bb-X\L	.	.
8A\	.	8aa\J	8cc#X\	.	.
8B-X\	.	8gg\L	8dd\	.	.
8F\J	6	8aa\J	8dd\J	.	.
=45	=45	=45	=45	=45-	=45
!LO:TX:a:t=P:problem=mixed beam	!	!	!	!	!
8G\L	.	16bb-X\LL	8dd\L	1r	.
.	.	16aa\	.	.	.
8E\	6 5	16gg\	16ee\L	.	.
.	.	16ff\JJ	16dd\JJ	.	.
8A\	#	8.ee\L	8.cc#X\L	.	.
8AA/J	7	.	.	.	.
.	.	16dd\Jk	16dd\Jk	.	.
4D/	.	4dd\	4dd\	.	.
4r	.	4r	4r	.	.
==	==	==	==	==	==
*-	*-	*-	*-	*-	*-
!!!system-decoration: s1[g1]s4
!!!RDF**kern: > = above
!!!ENC: Marta Lawrence
!!!END: 2020-10-27
!!!ENC: Krzysztof Stępień
!!!END: 2020-05-22
!!!YEC: Copyright 2022 Narodowy Instytut Fryderyka Chopina (https://polishscores.org)
!!!YEM: Licence CC BY 4.0 (https://creativecommons.org/licenses/by/4.0)
